;FLAVOR:UltiGCode
;TIME:2127
;MATERIAL:378
;MATERIAL2:0
;NOZZLE_DIAMETER:0.4
;MINX:100.427
;MINY:100.428
;MINZ:0.27
;MAXX:122.573
;MAXY:122.572
;MAXZ:19.97
;Generated with Cura_SteamEngine 4.8.0
M82 ;absolute extrusion mode
G0 F3000 Y50 ;avoid prime blob
G92 E0
G92 E0
G10
;LAYER_COUNT:198
;LAYER:0
M107
G0 F4320 X103.802 Y103.538 Z0.27
;TYPE:SKIRT
G11
G1 F540 X104.142 Y103.232 E0.04323
G1 X104.527 Y102.905 E0.09096
G1 X105.157 Y102.422 E0.16598
G1 X105.518 Y102.188 E0.20663
G1 X105.945 Y101.927 E0.25393
G1 X106.642 Y101.548 E0.3289
G1 X107.06 Y101.362 E0.37214
G1 X107.525 Y101.171 E0.41964
G1 X108.273 Y100.906 E0.49463
G1 X108.677 Y100.798 E0.53415
G1 X109.164 Y100.681 E0.58148
G1 X109.944 Y100.535 E0.65647
G1 X110.41 Y100.485 E0.70076
G1 X110.912 Y100.447 E0.74834
G1 X111.705 Y100.428 E0.8233
G1 X112.132 Y100.45 E0.8637
G1 X112.634 Y100.49 E0.91129
G1 X113.42 Y100.593 E0.9862
G1 X113.877 Y100.69 E1.03035
G1 X114.364 Y100.809 E1.07773
G1 X115.125 Y101.036 E1.15277
G1 X115.517 Y101.187 E1.19247
G1 X115.979 Y101.379 E1.23975
G1 X116.696 Y101.72 E1.31478
G1 X117.08 Y101.942 E1.35669
G1 X117.508 Y102.205 E1.40417
G1 X118.162 Y102.653 E1.47908
G1 X118.505 Y102.93 E1.52074
G1 X118.886 Y103.256 E1.56813
G1 X119.462 Y103.802 E1.64313
G1 X119.768 Y104.142 E1.68635
G1 X120.095 Y104.527 E1.73409
G1 X120.578 Y105.157 E1.80911
G1 X120.812 Y105.518 E1.84976
G1 X121.073 Y105.945 E1.89705
G1 X121.452 Y106.642 E1.97203
G1 X121.636 Y107.054 E2.01467
G1 X121.827 Y107.518 E2.06209
G1 X122.092 Y108.266 E2.13708
G1 X122.203 Y108.68 E2.17758
G1 X122.32 Y109.168 E2.22501
G1 X122.466 Y109.948 E2.3
G1 X122.514 Y110.407 E2.34361
G1 X122.552 Y110.907 E2.39099
G1 X122.573 Y111.7 E2.46596
G1 X122.55 Y112.127 E2.50637
G1 X122.51 Y112.631 E2.55415
G1 X122.408 Y113.418 E2.62914
G1 X122.194 Y114.355 E2.71997
G1 X121.968 Y115.115 E2.79489
G1 X121.813 Y115.517 E2.83561
G1 X121.62 Y115.981 E2.8831
G1 X121.279 Y116.698 E2.95813
G1 X121.058 Y117.08 E2.99983
G1 X120.795 Y117.508 E3.04731
G1 X120.347 Y118.162 E3.12222
G1 X120.07 Y118.505 E3.16388
G1 X119.744 Y118.886 E3.21127
G1 X119.198 Y119.462 E3.28627
G1 X118.857 Y119.769 E3.32963
G1 X118.473 Y120.095 E3.37723
G1 X117.843 Y120.578 E3.45225
G1 X117.487 Y120.808 E3.4923
G1 X117.059 Y121.07 E3.53972
G1 X116.363 Y121.45 E3.61466
G1 X115.94 Y121.638 E3.6584
G1 X115.475 Y121.829 E3.70591
G1 X114.727 Y122.094 E3.7809
G1 X114.323 Y122.202 E3.82042
G1 X113.836 Y122.319 E3.86775
G1 X113.056 Y122.465 E3.94274
G1 X112.59 Y122.515 E3.98703
G1 X112.088 Y122.553 E4.0346
G1 X111.295 Y122.572 E4.10956
G1 X110.868 Y122.55 E4.14997
G1 X110.366 Y122.51 E4.19756
G1 X109.58 Y122.407 E4.27247
G1 X109.123 Y122.31 E4.31662
G1 X108.636 Y122.191 E4.36399
G1 X107.875 Y121.964 E4.43904
G1 X107.481 Y121.812 E4.47895
G1 X107.017 Y121.619 E4.52644
G1 X106.3 Y121.278 E4.60147
G1 X105.911 Y121.053 E4.64393
G1 X105.484 Y120.79 E4.69132
G1 X104.83 Y120.341 E4.76629
G1 X104.493 Y120.067 E4.80733
G1 X104.111 Y119.74 E4.85485
G1 X103.535 Y119.195 E4.92979
G1 X103.227 Y118.853 E4.97328
G1 X102.902 Y118.47 E5.02075
G1 X102.42 Y117.84 E5.09571
G1 X102.186 Y117.48 E5.13629
G1 X101.924 Y117.051 E5.18379
G1 X101.545 Y116.353 E5.25885
G1 X101.361 Y115.938 E5.30175
G1 X101.17 Y115.473 E5.34925
G1 X100.905 Y114.725 E5.42424
G1 X100.679 Y113.828 E5.51166
G1 X100.534 Y113.048 E5.58663
G1 X100.486 Y112.593 E5.62987
G1 X100.448 Y112.093 E5.67725
G1 X100.427 Y111.3 E5.75222
G1 X100.45 Y110.873 E5.79263
G1 X100.49 Y110.369 E5.84041
G1 X100.592 Y109.582 E5.9154
G1 X100.806 Y108.645 E6.00623
G1 X101.032 Y107.885 E6.08115
G1 X101.187 Y107.483 E6.12187
G1 X101.38 Y107.019 E6.16936
G1 X101.721 Y106.302 E6.24439
G1 X101.942 Y105.92 E6.28609
G1 X102.205 Y105.492 E6.33356
G1 X102.653 Y104.838 E6.40848
G1 X102.93 Y104.495 E6.45014
G1 X103.256 Y104.114 E6.49753
G1 X103.802 Y103.538 E6.57253
G0 F4320 X104.056 Y103.779
G1 F540 X104.369 Y103.499 E6.61221
G1 X104.754 Y103.172 E6.65995
G1 X105.37 Y102.701 E6.73323
G1 X105.7 Y102.486 E6.77045
G1 X106.127 Y102.225 E6.81774
G1 X106.809 Y101.856 E6.89102
G1 X107.193 Y101.685 E6.93074
G1 X107.658 Y101.494 E6.97825
G1 X108.759 Y101.138 E7.08759
G1 X109.246 Y101.021 E7.13492
G1 X110.009 Y100.879 E7.20827
G1 X110.436 Y100.834 E7.24884
G1 X110.938 Y100.796 E7.29642
G1 X111.713 Y100.778 E7.36967
G1 X112.104 Y100.799 E7.40668
G1 X112.606 Y100.839 E7.45426
G1 X113.375 Y100.94 E7.52756
G1 X113.794 Y101.03 E7.56806
G1 X114.281 Y101.149 E7.61543
G1 X115.383 Y101.51 E7.72502
G1 X115.845 Y101.702 E7.7723
G1 X116.545 Y102.036 E7.84559
G1 X116.897 Y102.24 E7.88404
G1 X117.325 Y102.503 E7.93151
G1 X117.964 Y102.942 E8.00477
G1 X118.277 Y103.196 E8.04287
G1 X118.658 Y103.522 E8.09025
G1 X119.221 Y104.056 E8.16358
G1 X119.501 Y104.369 E8.20327
G1 X119.828 Y104.754 E8.251
G1 X120.299 Y105.37 E8.32428
G1 X120.514 Y105.7 E8.3615
G1 X120.775 Y106.127 E8.40879
G1 X121.144 Y106.809 E8.48207
G1 X121.313 Y107.188 E8.52128
G1 X121.504 Y107.652 E8.5687
G1 X121.761 Y108.383 E8.64193
G1 X121.863 Y108.762 E8.67902
G1 X121.98 Y109.25 E8.72644
G1 X122.121 Y110.012 E8.79967
G1 X122.165 Y110.434 E8.83977
G1 X122.203 Y110.934 E8.88715
G1 X122.222 Y111.709 E8.96041
G1 X122.201 Y112.099 E8.99732
G1 X122.161 Y112.603 E9.0451
G1 X122.06 Y113.372 E9.11839
G1 X121.854 Y114.272 E9.20564
G1 X121.632 Y115.015 E9.27892
G1 X121.49 Y115.383 E9.3162
G1 X121.297 Y115.847 E9.36369
G1 X120.963 Y116.547 E9.43698
G1 X120.76 Y116.897 E9.47522
G1 X120.497 Y117.325 E9.52269
G1 X120.058 Y117.964 E9.59595
G1 X119.804 Y118.277 E9.63404
G1 X119.478 Y118.658 E9.68143
G1 X118.944 Y119.221 E9.75476
G1 X118.63 Y119.503 E9.79464
G1 X118.246 Y119.829 E9.84224
G1 X117.305 Y120.51 E9.95201
G1 X116.877 Y120.772 E9.99943
G1 X116.195 Y121.142 E10.07276
G1 X115.807 Y121.315 E10.1129
G1 X115.342 Y121.506 E10.16041
G1 X114.241 Y121.862 E10.26976
G1 X113.754 Y121.979 E10.31709
G1 X112.991 Y122.121 E10.39043
G1 X112.564 Y122.166 E10.431
G1 X112.062 Y122.204 E10.47858
G1 X111.287 Y122.222 E10.55183
G1 X110.896 Y122.201 E10.58884
G1 X110.394 Y122.161 E10.63643
G1 X109.625 Y122.06 E10.70972
G1 X109.206 Y121.97 E10.75022
G1 X108.719 Y121.851 E10.7976
G1 X107.615 Y121.489 E10.90739
G1 X107.151 Y121.296 E10.95488
G1 X106.451 Y120.962 E11.02817
G1 X106.095 Y120.755 E11.06709
G1 X105.668 Y120.492 E11.11448
G1 X105.029 Y120.052 E11.1878
G1 X104.72 Y119.802 E11.22536
G1 X104.338 Y119.475 E11.27288
G1 X103.776 Y118.94 E11.3462
G1 X103.494 Y118.627 E11.38601
G1 X103.169 Y118.244 E11.43348
G1 X102.699 Y117.627 E11.50678
G1 X102.485 Y117.297 E11.54395
G1 X102.223 Y116.868 E11.59145
G1 X101.853 Y116.186 E11.66477
G1 X101.684 Y115.805 E11.70416
G1 X101.493 Y115.34 E11.75167
G1 X101.236 Y114.608 E11.82498
G1 X101.019 Y113.746 E11.90898
G1 X100.878 Y112.984 E11.98221
G1 X100.835 Y112.566 E12.02192
G1 X100.797 Y112.066 E12.06931
G1 X100.778 Y111.291 E12.14257
G1 X100.799 Y110.901 E12.17947
G1 X100.839 Y110.397 E12.22725
G1 X100.94 Y109.628 E12.30055
G1 X101.146 Y108.728 E12.3878
G1 X101.368 Y107.985 E12.46108
G1 X101.51 Y107.617 E12.49835
G1 X101.703 Y107.153 E12.54584
G1 X102.037 Y106.453 E12.61914
G1 X102.24 Y106.103 E12.65737
G1 X102.503 Y105.675 E12.70484
G1 X102.942 Y105.036 E12.77811
G1 X103.196 Y104.723 E12.8162
G1 X103.522 Y104.342 E12.86358
G1 X104.056 Y103.779 E12.93691
G0 F4320 X104.31 Y104.021
G1 F540 X104.595 Y103.765 E12.97312
G1 X104.98 Y103.438 E13.02085
G1 X105.883 Y102.785 E13.12616
G1 X106.31 Y102.524 E13.17345
G1 X106.976 Y102.164 E13.24499
G1 X107.326 Y102.009 E13.28117
G1 X107.791 Y101.818 E13.32867
G1 X108.841 Y101.479 E13.43294
G1 X109.328 Y101.362 E13.48027
G1 X110.073 Y101.224 E13.55187
G1 X110.462 Y101.183 E13.58884
G1 X110.964 Y101.145 E13.63641
G1 X112.076 Y101.148 E13.7415
G1 X112.578 Y101.188 E13.78908
G1 X113.329 Y101.288 E13.86068
G1 X113.711 Y101.37 E13.8976
G1 X114.198 Y101.489 E13.94498
G1 X115.249 Y101.833 E14.04948
G1 X115.711 Y102.025 E14.09676
G1 X116.713 Y102.538 E14.20314
G1 X117.141 Y102.801 E14.25061
G1 X118.05 Y103.462 E14.35682
G1 X118.431 Y103.788 E14.40421
G1 X118.979 Y104.31 E14.47573
G1 X119.235 Y104.595 E14.51193
G1 X119.562 Y104.98 E14.55966
G1 X120.215 Y105.883 E14.66497
G1 X120.476 Y106.31 E14.71226
G1 X120.989 Y107.321 E14.8194
G1 X121.18 Y107.785 E14.86682
G1 X121.522 Y108.843 E14.97189
G1 X121.639 Y109.331 E15.01931
G1 X121.777 Y110.076 E15.09091
G1 X121.816 Y110.46 E15.12739
G1 X121.854 Y110.96 E15.17478
G1 X121.853 Y112.072 E15.27986
G1 X121.813 Y112.576 E15.32764
G1 X121.713 Y113.326 E15.39914
G1 X121.514 Y114.189 E15.48283
G1 X121.167 Y115.249 E15.58823
G1 X120.974 Y115.713 E15.63572
G1 X120.462 Y116.713 E15.74189
G1 X120.199 Y117.141 E15.78936
G1 X119.538 Y118.05 E15.89557
G1 X119.212 Y118.431 E15.94296
G1 X118.69 Y118.979 E16.01448
G1 X118.404 Y119.236 E16.05081
G1 X118.02 Y119.562 E16.09842
G1 X117.122 Y120.211 E16.20312
G1 X116.694 Y120.473 E16.25054
G1 X116.028 Y120.834 E16.32213
G1 X115.674 Y120.991 E16.35872
G1 X115.209 Y121.182 E16.40623
G1 X114.159 Y121.521 E16.5105
G1 X113.672 Y121.638 E16.55783
G1 X112.927 Y121.776 E16.62943
G1 X112.538 Y121.817 E16.66639
G1 X112.036 Y121.855 E16.71397
G1 X110.924 Y121.852 E16.81905
G1 X110.422 Y121.812 E16.86664
G1 X109.671 Y121.712 E16.93824
G1 X109.289 Y121.63 E16.97516
G1 X108.802 Y121.511 E17.02253
G1 X107.749 Y121.166 E17.12725
G1 X107.285 Y120.973 E17.17474
G1 X106.278 Y120.457 E17.28167
G1 X105.851 Y120.194 E17.32906
G1 X104.948 Y119.536 E17.43464
G1 X104.566 Y119.209 E17.48216
G1 X104.018 Y118.686 E17.55375
G1 X103.761 Y118.4 E17.59008
G1 X103.436 Y118.017 E17.63755
G1 X102.784 Y117.115 E17.74273
G1 X102.522 Y116.686 E17.79023
G1 X102.162 Y116.019 E17.86186
G1 X102.008 Y115.672 E17.89773
G1 X101.817 Y115.207 E17.94524
G1 X101.476 Y114.15 E18.05019
G1 X101.36 Y113.665 E18.09732
G1 X101.223 Y112.92 E18.1689
G1 X101.184 Y112.54 E18.205
G1 X101.146 Y112.04 E18.25239
G1 X101.147 Y110.928 E18.35747
G1 X101.187 Y110.424 E18.40525
G1 X101.287 Y109.674 E18.47675
G1 X101.486 Y108.811 E18.56044
G1 X101.833 Y107.751 E18.66584
G1 X102.026 Y107.287 E18.71333
G1 X102.538 Y106.287 E18.8195
G1 X102.801 Y105.859 E18.86697
G1 X103.462 Y104.95 E18.97318
G1 X103.788 Y104.569 E19.02057
G1 X104.31 Y104.021 E19.09209
G0 F4320 X104.822 Y104.032
G1 F540 X105.207 Y103.705 E19.13982
G1 X106.066 Y103.084 E19.23999
G1 X106.493 Y102.823 E19.28728
G1 X107.459 Y102.333 E19.38964
G1 X107.924 Y102.142 E19.43715
G1 X108.923 Y101.819 E19.53636
G1 X109.41 Y101.702 E19.58369
G1 X110.489 Y101.532 E19.68692
G1 X110.991 Y101.494 E19.73449
G1 X112.048 Y101.497 E19.83438
G1 X112.55 Y101.537 E19.88197
G1 X113.628 Y101.71 E19.98514
G1 X114.115 Y101.829 E20.03252
G1 X115.114 Y102.157 E20.13188
G1 X115.576 Y102.349 E20.17916
G1 X116.53 Y102.836 E20.28038
G1 X116.958 Y103.099 E20.32785
G1 X117.822 Y103.728 E20.42885
G1 X118.203 Y104.054 E20.47623
G1 X118.968 Y104.822 E20.57867
G1 X119.295 Y105.207 E20.6264
G1 X119.916 Y106.066 E20.72657
G1 X120.177 Y106.493 E20.77386
G1 X120.665 Y107.454 E20.87572
G1 X120.856 Y107.918 E20.92313
G1 X121.182 Y108.925 E21.02316
G1 X121.299 Y109.413 E21.07058
G1 X121.467 Y110.487 E21.17331
G1 X121.505 Y110.987 E21.22069
G1 X121.504 Y112.044 E21.32058
G1 X121.464 Y112.548 E21.36836
G1 X121.292 Y113.621 E21.47105
G1 X121.174 Y114.106 E21.51822
G1 X120.844 Y115.114 E21.61845
G1 X120.651 Y115.578 E21.66594
G1 X120.164 Y116.53 E21.76699
G1 X119.901 Y116.958 E21.81447
G1 X119.272 Y117.822 E21.91546
G1 X118.946 Y118.203 E21.96284
G1 X118.177 Y118.969 E22.06542
G1 X117.793 Y119.295 E22.11302
G1 X116.939 Y119.913 E22.21263
G1 X116.511 Y120.175 E22.26006
G1 X115.541 Y120.667 E22.36284
G1 X115.076 Y120.858 E22.41034
G1 X114.077 Y121.181 E22.50956
G1 X113.59 Y121.298 E22.55689
G1 X112.511 Y121.468 E22.66012
G1 X112.009 Y121.506 E22.70769
G1 X110.952 Y121.503 E22.80758
G1 X110.45 Y121.463 E22.85517
G1 X109.372 Y121.29 E22.95834
G1 X108.885 Y121.171 E23.00572
G1 X107.884 Y120.843 E23.10526
G1 X107.42 Y120.65 E23.15275
G1 X106.462 Y120.159 E23.25448
G1 X106.035 Y119.896 E23.30187
G1 X105.176 Y119.27 E23.40231
G1 X104.794 Y118.943 E23.44983
G1 X104.028 Y118.174 E23.5524
G1 X103.703 Y117.791 E23.59987
G1 X103.082 Y116.932 E23.70004
G1 X102.82 Y116.503 E23.74754
G1 X102.332 Y115.539 E23.84965
G1 X102.141 Y115.074 E23.89715
G1 X101.816 Y114.069 E23.99697
G1 X101.7 Y113.584 E24.04409
G1 X101.533 Y112.513 E24.14652
G1 X101.495 Y112.013 E24.19391
G1 X101.496 Y110.956 E24.2938
G1 X101.536 Y110.452 E24.34158
G1 X101.708 Y109.379 E24.44427
G1 X101.826 Y108.894 E24.49144
G1 X102.156 Y107.886 E24.59167
G1 X102.349 Y107.422 E24.63916
G1 X102.836 Y106.47 E24.74021
G1 X103.099 Y106.042 E24.78768
G1 X103.728 Y105.178 E24.88868
G1 X104.054 Y104.797 E24.93606
G1 X104.822 Y104.032 E25.0385
G0 F4320 X105.048 Y104.299
G1 F540 X105.433 Y103.972 E25.08623
G1 X106.248 Y103.382 E25.18131
G1 X106.675 Y103.121 E25.22861
G1 X107.592 Y102.657 E25.32572
G1 X108.057 Y102.466 E25.37323
G1 X109.004 Y102.159 E25.46731
G1 X109.491 Y102.042 E25.51464
G1 X110.515 Y101.881 E25.61259
G1 X111.017 Y101.843 E25.66017
G1 X112.02 Y101.845 E25.75495
G1 X112.522 Y101.885 E25.80254
G1 X113.545 Y102.05 E25.90046
G1 X114.032 Y102.169 E25.94784
G1 X114.98 Y102.48 E26.04212
G1 X115.442 Y102.672 E26.0894
G1 X116.347 Y103.134 E26.18542
G1 X116.775 Y103.397 E26.2329
G1 X117.595 Y103.994 E26.32875
G1 X117.976 Y104.32 E26.37613
G1 X118.701 Y105.048 E26.47323
G1 X119.028 Y105.433 E26.52096
G1 X119.618 Y106.248 E26.61604
G1 X119.879 Y106.675 E26.66333
G1 X120.342 Y107.587 E26.75999
G1 X120.533 Y108.051 E26.80741
G1 X120.842 Y109.006 E26.90226
G1 X120.959 Y109.494 E26.94968
G1 X121.118 Y110.513 E27.04714
G1 X121.156 Y111.013 E27.09453
G1 X121.155 Y112.016 E27.18931
G1 X121.115 Y112.52 E27.23709
G1 X120.951 Y113.539 E27.33463
G1 X120.833 Y114.024 E27.38179
G1 X120.52 Y114.98 E27.47686
G1 X120.327 Y115.444 E27.52435
G1 X119.866 Y116.347 E27.62016
G1 X119.603 Y116.775 E27.66763
G1 X119.006 Y117.595 E27.76348
G1 X118.68 Y117.976 E27.81087
G1 X117.951 Y118.702 E27.90809
G1 X117.567 Y119.028 E27.95569
G1 X116.757 Y119.614 E28.05017
G1 X116.329 Y119.876 E28.09759
G1 X115.408 Y120.343 E28.19517
G1 X114.943 Y120.534 E28.24268
G1 X113.996 Y120.841 E28.33676
G1 X113.509 Y120.958 E28.38409
G1 X112.485 Y121.119 E28.48204
G1 X111.983 Y121.157 E28.52962
G1 X110.98 Y121.155 E28.6244
G1 X110.478 Y121.115 E28.67199
G1 X109.455 Y120.95 E28.76991
G1 X108.968 Y120.831 E28.81729
G1 X108.018 Y120.519 E28.91178
G1 X107.554 Y120.326 E28.95927
G1 X106.645 Y119.861 E29.05576
G1 X106.218 Y119.598 E29.10315
G1 X105.403 Y119.004 E29.19845
G1 X105.021 Y118.677 E29.24597
G1 X104.295 Y117.947 E29.34327
G1 X103.97 Y117.564 E29.39073
G1 X103.381 Y116.75 E29.48568
G1 X103.119 Y116.321 E29.53319
G1 X102.656 Y115.406 E29.63009
G1 X102.465 Y114.941 E29.6776
G1 X102.157 Y113.987 E29.77233
G1 X102.041 Y113.502 E29.81946
G1 X101.882 Y112.487 E29.91655
G1 X101.844 Y111.987 E29.96393
G1 X101.845 Y110.984 E30.05871
G1 X101.885 Y110.48 E30.10649
G1 X102.049 Y109.461 E30.20403
G1 X102.167 Y108.976 E30.2512
G1 X102.48 Y108.02 E30.34626
G1 X102.673 Y107.556 E30.39375
G1 X103.134 Y106.653 E30.48956
G1 X103.397 Y106.225 E30.53703
G1 X103.994 Y105.405 E30.63288
G1 X104.32 Y105.024 E30.68027
G1 X105.048 Y104.299 E30.77736
G0 F4320 X105.275 Y104.566
G1 F540 X105.66 Y104.239 E30.82509
G1 X106.431 Y103.681 E30.91503
G1 X106.858 Y103.42 E30.96233
G1 X107.725 Y102.98 E31.0542
G1 X108.19 Y102.789 E31.10171
G1 X109.086 Y102.499 E31.19071
G1 X109.573 Y102.382 E31.23804
G1 X110.542 Y102.23 E31.33073
G1 X111.044 Y102.192 E31.3783
G1 X111.993 Y102.194 E31.46798
G1 X112.495 Y102.234 E31.51557
G1 X113.462 Y102.39 E31.60813
G1 X113.949 Y102.509 E31.65551
G1 X114.846 Y102.803 E31.74471
G1 X115.308 Y102.995 E31.79199
G1 X116.164 Y103.433 E31.88286
G1 X116.592 Y103.696 E31.93033
G1 X117.367 Y104.26 E32.02091
G1 X117.748 Y104.586 E32.06829
G1 X118.434 Y105.275 E32.16017
G1 X118.761 Y105.66 E32.20791
G1 X119.319 Y106.431 E32.29785
G1 X119.58 Y106.858 E32.34514
G1 X120.018 Y107.721 E32.4366
G1 X120.209 Y108.185 E32.48401
G1 X120.501 Y109.088 E32.5737
G1 X120.618 Y109.576 E32.62112
G1 X120.769 Y110.54 E32.71333
G1 X120.807 Y111.04 E32.76072
